X: 26978
T: Miss Drummond Of Perth's Favourite Scotch Measure
R: reel
M: 4/4
K: Gminor
B2 AB G2 GA|B2 Bc d2 cB|A2 f2 F2 G2|ABcF D2 GA|
B2 AB G^FGA|BABc d2 (=e^f)|g2 d2 (=ed)(cB)|“tr”(A4 G2):|
b2 a2 g2 (^f/g/a)|g2 d2 d2 =e2|f3g fgaB|cBAG F2 (GA)|
BABG cBcA|dcd=e fefd|g2 d2 _edcB|“tr”A4 G2:|
G^FGA BABc|dcBA GABG|AcFc AGAF|fgac ABcA|
G^FGA BABc|dcBA GABG|ABcA d2 cB|“tr”A4 G2:|
gdgd gdgd|B2 AB G2 d=e|fcfc fcfc|A2 GA F2 ga|
b2 ag a2 g^f|g2 ab d2 cB|c2 g2 G2 g^f|g4 G2:|

